www/assets/icons/smart_screen.svg

<svg width="24" height="24" viewBox="0 0 24 24" xmlns="http://www.w3.org/2000/svg" fill='currentColor'><path d="M21 5H3C1.9 5 1 5.9 1 7V17C1 18.1 1.9 19 3 19H21C22.1 19 23 18.1 23 17V7C23 5.9 22.1 5 21 5ZM18 17H6V7H18V17Z"/><path d="M16.5 11.25H15V12.75H16.5V11.25Z"/><path d="M14 11.25H12.5V12.75H14V11.25Z"/><path d="M11.5 11.25H10V12.75H11.5V11.25Z"/><path d="M9 11.25H7.5V12.75H9V11.25Z"/></svg>

<svg xmlns="http://www.w3.org/2000/svg" width="24" height="24" viewBox="0 0 24 24" fill='currentColor'><path d="M21 5H3c-1.1 0-2 .9-2 2v10c0 1.1.9 2 2 2h18c1.1 0 2-.9 2-2V7c0-1.1-.9-2-2-2m-3 12H6V7h12z"/><path d="M16.5 11.25H15v1.5h1.5zm-2.5 0h-1.5v1.5H14zm-2.5 0H10v1.5h1.5zm-2.5 0H7.5v1.5H9z"/></svg>
